src/ui/icons/weather/72.svg

<?xml version="1.0" encoding="UTF-8"?>
<svg width="40px" height="40px" viewBox="0 0 40 40" version="1.1" xmlns="http://www.w3.org/2000/svg" xmlns:xlink="http://www.w3.org/1999/xlink">
    <title>45</title>
    <g id="Page-1" stroke="none" stroke-width="1" fill="none" fill-rule="evenodd">
        <g id="icons-day" transform="translate(-2275.000000, -6.000000)" fill-rule="nonzero">
            <g id="icons" transform="translate(25.000000, 6.000000)">
                <g id="45" transform="translate(2250.000000, 3.400000)">
                    <path d="M10.6959238,5.99771429 C11.200451,5.99771429 11.6864061,6.0772447 12.141936,6.22445253 L12.265442,6.2677088 C11.1840637,7.64977044 10.4857536,9.34604499 10.3303351,11.1967619 L10.3303351,11.1967619 L9.79793798,11.1967619 C8.48995285,11.1967619 7.27680507,11.6016988 6.27691884,12.2930147 C6.09614724,11.7955199 5.99771429,11.257215 5.99771429,10.6959238 C5.99771429,8.10121265 8.10121265,5.99771429 10.6959238,5.99771429 Z" id="Combined-Shape" fill="#FED100"></path>
                    <rect id="Rectangle" fill="#FED100" x="0" y="9.89622857" width="4.49828571" height="1.59939048" rx="0.799695238"></rect>
                    <rect id="Rectangle" fill="#FED100" transform="translate(4.723126, 4.723160) rotate(45.000000) translate(-4.723126, -4.723160) " x="2.473983" y="3.92346459" width="4.49828571" height="1.59939048" rx="0.799695238"></rect>
                    <rect id="Rectangle" fill="#FED100" x="9.89622857" y="0" width="1.59939048" height="4.49828571" rx="0.799695238"></rect>
                    <path d="M19.5810097,4.19942857 C22.2141974,4.19942857 24.5964777,5.51858873 26.0155606,7.59897917 C22.3513965,7.68210385 19.3703199,10.5126144 19.0676901,14.1018258 L19.0676901,14.1018258 L18.6583461,14.1018258 C16.0261492,14.1018258 13.8935619,16.2260163 13.8935619,18.8464177 C13.8935619,20.1025155 14.3835606,21.2444081 15.1835645,22.0930484 L9.79793798,22.0926095 C7.20262705,22.0926095 5.09942857,19.989611 5.09942857,17.3944 C5.09942857,14.8714726 7.08731104,12.8134143 9.58282788,12.7010245 L9.79793798,12.6961905 L11.7091096,12.6961905 L11.8245656,11.3222141 C12.1614373,7.31054293 15.5282542,4.19942857 19.5810097,4.19942857 Z" id="Combined-Shape" fill="#FFFFFF"></path>
                    <path d="M26.1792798,9.09653333 C28.5891614,9.09653333 30.7076541,10.6137551 31.4966534,12.8355084 L31.4966534,12.8355084 L31.9125949,14.006862 L33.1408268,13.815235 C33.3560448,13.7816478 33.5751613,13.7646543 33.7970767,13.7646543 C36.1110949,13.7646543 37.984381,15.6300434 37.984381,17.9281676 C37.984381,20.2260919 36.1110949,22.091581 33.7970767,22.091581 L33.7970767,22.091581 L18.6583461,22.091581 C16.8533339,22.091581 15.3929905,20.637635 15.3929905,18.8464177 C15.3929905,17.0553003 16.8530341,15.6012544 18.6583461,15.6012544 L18.6583461,15.6012544 L20.4458648,15.6012544 L20.5618206,14.2277778 C20.8053278,11.3393786 23.242699,9.09653333 26.1792798,9.09653333 Z" id="Combined-Shape" fill="#FFFFFF"></path>
                    <g id="Group" transform="translate(7.797029, 26.090057)" fill="#FFFFFF">
                        <path d="M11.3956599,6.19903756 C11.3956599,7.74404876 10.1425347,8.99657143 8.59672381,8.99657143 C7.05091291,8.99657143 5.79779048,7.74404876 5.79779048,6.19903756 C5.79779048,5.77100069 5.89395383,5.36535528 6.06598827,5.00259352 L7.63339093,1.0147133 C8.16498834,-0.337771276 9.02646004,-0.338770895 9.55835733,1.0147133 L11.1184628,4.98380069 C11.3014788,5.36273768 11.3962498,5.7782196 11.3956599,6.19903756 L11.3956599,6.19903756 Z M3.79855351,4.13272503 C3.79855351,5.1627325 2.94817646,5.99771429 1.89927619,5.99771429 C0.850375924,5.99771429 0,5.1627325 0,4.13272503 C0,3.84733379 0.0652751238,3.57693684 0.181930667,3.33502903 L1.2456253,0.67644221 C1.60628785,-0.225214171 2.19086507,-0.225813943 2.5518275,0.67644221 L3.61042408,3.32253379 C3.73449193,3.57457669 3.79886404,3.85180091 3.79855351,4.13272503 Z" id="Shape"></path>
                        <path d="M27.2563127,2.06591269 L28.588605,1.27171535 C28.8437077,1.12317196 29.1699834,1.21133836 29.3173272,1.4686403 C29.4645711,1.72604221 29.3771045,2.0551168 29.1220017,2.20376015 L27.7894095,2.99885714 L29.1219017,3.79395413 C29.3771045,3.94259749 29.4645711,4.27167208 29.3172273,4.52907398 C29.1699834,4.78637592 28.8437077,4.87454232 28.588505,4.72599893 L27.2563127,3.9318016 L27.2563127,5.47041524 C27.2563127,5.76160427 27.0176037,5.99771429 26.7231159,5.99771429 C26.4287281,5.99771429 26.190019,5.76160427 26.190019,5.47041524 L26.190019,3.9318016 L24.7910522,4.72599893 C24.5359494,4.87454232 24.2096738,4.78637592 24.0623299,4.52907398 C23.915086,4.27167208 24.0025527,3.94259749 24.2576555,3.79395413 L25.5902476,2.99885714 L24.2577554,2.20376015 C24.0025527,2.0551168 23.915086,1.72604221 24.0624299,1.4686403 C24.2096738,1.21133836 24.5359494,1.12317196 24.7911522,1.27171535 L26.190019,2.06591269 L26.190019,0.527299048 C26.190019,0.236110019 26.4287281,0 26.7231159,0 C27.0176037,0 27.2563127,0.236110019 27.2563127,0.527299048 L27.2563127,2.06591269 L27.2563127,2.06591269 Z M18.7928381,3.09881905 L20.7912765,1.90757303 C21.1739307,1.68465798 21.6633442,1.81700754 21.88426,2.20306042 C22.1051758,2.58901333 21.9741257,3.08272518 21.5913716,3.30564023 L19.5925333,4.49828571 L21.5913716,5.69103116 C21.9741257,5.91394621 22.1051758,6.4075581 21.88426,6.79361097 C21.6633442,7.17956389 21.1739307,7.31191345 20.7912765,7.0889984 L18.7928381,5.89775238 L18.7928381,8.20567284 C18.7928381,8.64250636 18.4347746,8.99657143 17.9931429,8.99657143 C17.5515112,8.99657143 17.1934476,8.64250636 17.1934476,8.20567284 L17.1934476,5.89775238 L15.0950473,7.0889984 C14.7123931,7.31191345 14.2229797,7.17956389 14.0020638,6.79351101 C13.781148,6.4075581 13.9121981,5.91384625 14.2949522,5.6909312 L16.2937905,4.49828571 L14.2949522,3.30554027 C13.9121981,3.08262522 13.781148,2.58901333 14.0020638,2.20296046 C14.2229797,1.81700754 14.7123931,1.68465798 15.0950473,1.90757303 L17.1934476,3.09881905 L17.1934476,0.79089859 C17.1934476,0.354065067 17.5515112,0 17.9931429,0 C18.4347746,0 18.7928381,0.354065067 18.7928381,0.79089859 L18.7928381,3.09881905 Z" id="Shape"></path>
                    </g>
                </g>
            </g>
        </g>
    </g>
</svg>

<svg id="icon-icon_weather_72" width="40" height="40" viewBox="0 0 40 40">
    <g fill="none" fill-rule="evenodd">
        <g fill-rule="nonzero">
            <g>
                <g>
                    <path fill="#FED100" d="M10.696 15.394c-2.595 0-4.698-2.103-4.698-4.698S8.1 5.998 10.696 5.998s4.698 2.103 4.698 4.698-2.103 4.698-4.698 4.698z" transform="translate(-2275 -6) translate(25 6) translate(2250 3.4)"/>
                    <path fill="#333" d="M10.696 14.195c1.932 0 3.499-1.567 3.499-3.5 0-1.931-1.567-3.498-3.5-3.498-1.931 0-3.498 1.567-3.498 3.499 0 1.932 1.567 3.499 3.499 3.499zm0 1.2c-2.595 0-4.698-2.104-4.698-4.7 0-2.594 2.103-4.697 4.698-4.697s4.698 2.103 4.698 4.698-2.103 4.698-4.698 4.698z" transform="translate(-2275 -6) translate(25 6) translate(2250 3.4)"/>
                    <g transform="translate(-2275 -6) translate(25 6) translate(2250 3.4) translate(0 9.896)">
                        <rect width="4.498" height="1.599" fill="#333" rx=".8"/>
                        <rect width="4.498" height="1.599" x="16.894" fill="#FFA000" rx=".8"/>
                    </g>
                    <g transform="translate(-2275 -6) translate(25 6) translate(2250 3.4) rotate(45 -1.245 5.755)">
                        <rect width="4.498" height="1.599" x="-.003" y=".005" fill="#333" rx=".8"/>
                        <rect width="4.498" height="1.599" x="16.89" y=".005" fill="#FFA000" rx=".8"/>
                    </g>
                    <g transform="translate(-2275 -6) translate(25 6) translate(2250 3.4) translate(9.896)">
                        <rect width="1.599" height="4.498" fill="#333" rx=".8"/>
                        <rect width="1.599" height="4.498" y="16.994" fill="#FFA000" rx=".8"/>
                    </g>
                    <path fill="#FFF" d="M10.828 11.239l-.038.458h-.992c-3.148 0-5.698 2.55-5.698 5.697 0 3.148 2.55 5.698 5.698 5.698H29.49c3.81 0 2.898-3.088 2.898-6.897 0-3.81-1.698-6.898-2.898-6.898-.363 0-.723.028-1.077.084l-.41.064-.139-.391c-1.23-3.48-4.53-5.854-8.283-5.854-4.574 0-8.372 3.51-8.753 8.039z" transform="translate(-2275 -6) translate(25 6) translate(2250 3.4)"/>
                    <path fill="#333" d="M11.825 11.322l-.116 1.374H9.798c-2.595 0-4.699 2.103-4.699 4.698 0 2.596 2.104 4.699 4.699 4.699H29.49c3.257 0 2.898-2.64 2.898-5.898 0-3.257.36-5.898-2.898-5.898-.311 0-.62.024-.922.072l-1.23.193-.416-1.175C25.832 6.303 22.906 4.2 19.581 4.2c-4.053 0-7.42 3.112-7.756 7.123zm16.51-2.435c.383-.06.769-.09 1.155-.09 1.248 0 4.397 4.938 4.397 7.398s-.311 7.397-4.397 7.397H9.798c-3.423 0-6.198-2.774-6.198-6.198 0-3.422 2.774-6.197 6.198-6.197h.532c.4-4.76 4.39-8.497 9.251-8.497 4.041 0 7.48 2.582 8.755 6.187z" transform="translate(-2275 -6) translate(25 6) translate(2250 3.4)"/>
                    <path fill="#FFF" d="M26.135 7.961c-3.509 0-6.423 2.7-6.715 6.183l-.03.352h-.76c-2.415 0-4.372 1.962-4.372 4.383 0 2.42 1.957 4.382 4.371 4.382h15.108c2.922 0 5.291-2.375 5.291-5.305 0-2.93-2.369-5.305-5.291-5.305-.279 0-.555.022-.826.064l-.315.05-.106-.301c-.944-2.677-3.477-4.503-6.355-4.503z" transform="translate(-2275 -6) translate(25 6) translate(2250 3.4)"/>
                    <path fill="#333" d="M26.18 9.097c-2.937 0-5.375 2.242-5.618 5.13l-.116 1.374h-1.788c-1.805 0-3.265 1.454-3.265 3.245 0 1.792 1.46 3.246 3.265 3.246h15.14c2.313 0 4.186-1.866 4.186-4.164 0-2.298-1.873-4.163-4.187-4.163-.222 0-.441.017-.656.05l-1.228.192-.416-1.171c-.79-2.222-2.908-3.74-5.318-3.74zm0-1.5c3.106 0 5.75 1.977 6.73 4.737.293-.046.59-.069.887-.069 3.14 0 5.687 2.536 5.687 5.663 0 3.128-2.546 5.663-5.687 5.663H18.658c-2.631 0-4.764-2.124-4.764-4.745 0-2.62 2.132-4.744 4.764-4.744h.41c.307-3.643 3.374-6.505 7.111-6.505z" transform="translate(-2275 -6) translate(25 6) translate(2250 3.4)"/>
                    <g fill="#333">
                        <path d="M11.396 6.199c0 1.545-1.253 2.798-2.8 2.798-1.545 0-2.798-1.253-2.798-2.798 0-.428.096-.834.268-1.196l1.567-3.988c.532-1.353 1.393-1.354 1.925 0l1.56 3.969c.183.379.278.794.278 1.215zM3.799 4.133c0 1.03-.85 1.865-1.9 1.865C.85 5.998 0 5.163 0 4.133c0-.286.065-.556.182-.798L1.246.676c.36-.901.945-.902 1.306 0L3.61 3.323c.124.252.189.529.189.81zM27.256 2.066l1.333-.794c.255-.149.581-.06.728.197.148.257.06.586-.195.735l-1.333.795 1.333.795c.255.149.343.478.195.735-.147.257-.473.346-.728.197l-1.333-.794V5.47c0 .292-.238.528-.533.528-.294 0-.533-.236-.533-.528V3.932l-1.399.794c-.255.149-.581.06-.729-.197-.147-.257-.06-.586.196-.735l1.332-.795-1.332-.795c-.255-.149-.343-.478-.196-.735.148-.258.474-.346.73-.197l1.398.794V.527c0-.29.239-.527.533-.527.295 0 .533.236.533.527v1.539zm-8.463 1.033l1.998-1.191c.383-.223.872-.091 1.093.295.221.386.09.88-.293 1.103l-1.998 1.192 1.998 1.193c.383.223.514.717.293 1.103-.22.386-.71.518-1.093.295l-1.998-1.191v2.308c0 .437-.358.79-.8.79-.441 0-.8-.353-.8-.79V5.898l-2.098 1.191c-.383.223-.872.09-1.093-.295-.22-.386-.09-.88.293-1.103l1.999-1.193-1.999-1.192c-.383-.223-.514-.717-.293-1.103.221-.386.71-.518 1.093-.295l2.098 1.19V.792c0-.437.359-.791.8-.791.442 0 .8.354.8.79V3.1z" transform="translate(-2275 -6) translate(25 6) translate(2250 3.4) translate(7.797 26.09)"/>
                    </g>
                </g>
            </g>
        </g>
    </g>
</svg>
